app/assets/images/heroicons/outline/link-slash.svg

<svg width="24" height="24" viewBox="0 0 24 24" fill="none" xmlns="http://www.w3.org/2000/svg">
<path d="M13.1813 8.68025C13.6303 8.89477 14.0511 9.188 14.423 9.55994C15.9219 11.0591 16.1423 13.3528 15.084 15.0855M5.31614 12.3032L3.5592 14.0604C1.80188 15.8179 1.80188 18.6674 3.5592 20.4249C5.31653 22.1825 8.16572 22.1825 9.92304 20.4249L13.0517 17.296M18.6659 11.6811L20.4228 9.92393C22.1802 8.1664 22.1802 5.31689 20.4228 3.55936C18.6655 1.80183 15.8163 1.80183 14.059 3.55936L9.55909 8.05979C9.30075 8.31816 9.08038 8.60014 8.898 8.89877M10.8008 15.3041C10.3518 15.0895 9.93099 14.7963 9.55909 14.4244C9.0674 13.9326 8.71328 13.3554 8.49674 12.7405M15.084 15.0855L20.9908 20.993M15.084 15.0855L8.898 8.89877M2.9912 2.99128L8.898 8.89877" stroke="black" stroke-width="1.5" stroke-linecap="round" stroke-linejoin="round"/>
</svg>

<svg xmlns="http://www.w3.org/2000/svg" fill="none" viewBox="0 0 24 24" stroke-width="1.5" stroke="currentColor" aria-hidden="true" data-slot="icon">
  <path stroke-linecap="round" stroke-linejoin="round" d="M13.181 8.68a4.503 4.503 0 0 1 1.903 6.405m-9.768-2.782L3.56 14.06a4.5 4.5 0 0 0 6.364 6.365l3.129-3.129m5.614-5.615 1.757-1.757a4.5 4.5 0 0 0-6.364-6.365l-4.5 4.5c-.258.26-.479.541-.661.84m1.903 6.405a4.495 4.495 0 0 1-1.242-.88 4.483 4.483 0 0 1-1.062-1.683m6.587 2.345 5.907 5.907m-5.907-5.907L8.898 8.898M2.991 2.99 8.898 8.9"/>
</svg>
